austria/municipalities/70525.svg

<svg xmlns="http://www.w3.org/2000/svg" width="1200" height="1400" style="shape-rendering:geometricPrecision;text-rendering:geometricPrecision;image-rendering:optimizeQuality;fill-rule:evenodd;clip-rule:evenodd"><path style="opacity:1" d="M-.5-.5h1200v867a225.768 225.768 0 0 0-5 21 1057.725 1057.725 0 0 1-45.5 146c-8.94 18.21-17.61 36.55-26 55-13.33 21.33-26.67 42.67-40 64-15 19.83-30.17 39.49-45.5 59a212.662 212.662 0 0 0-30 30 449.526 449.526 0 0 1-30 26 485.342 485.342 0 0 0-41 31 1073.64 1073.64 0 0 1-31 19.5 3516.27 3516.27 0 0 1-72 35.5c-7.779 1.7-15.113 4.37-22 8a238.522 238.522 0 0 1-21 8c-2.398-.24-4.398.43-6 2a484.614 484.614 0 0 1-72 22c-5.67.42-11.003 1.75-16 4-6.5.44-12.834 1.1-19 2h-157c-38.614-4.57-75.614-14.57-111-30-4.569-2.49-9.569-3.83-15-4-2.518-.76-4.851-1.76-7-3-1.504-2.34-3.504-4.17-6-5.5a59.282 59.282 0 0 0-14-3.5 507.85 507.85 0 0 1-66-33c-2.544-3.78-6.21-5.78-11-6a37.79 37.79 0 0 1-10-6c-3.178-3.84-7.178-6.5-12-8-1.527.07-2.527-.59-3-2-.976-1.31-1.976-2.65-3-4a41.34 41.34 0 0 1-11-7.5c-1.525-1.01-3.192-1.51-5-1.5-3.848-4.52-8.514-7.85-14-10a560.464 560.464 0 0 1-53-48c-1.333-3.33-3.667-5.67-7-7-4.359-4.03-8.693-8.03-13-12-.843-3.02-2.343-5.68-4.5-8-4.749-4.08-8.749-8.74-12-14-1.777-2.29-3.944-3.96-6.5-5a1522.758 1522.758 0 0 1-32-43c-1.076-5.5-4.076-9.5-9-12a706.738 706.738 0 0 1-28-48.5 816.544 816.544 0 0 1-31-75.5A6755.927 6755.927 0 0 1 3 892.5a572.465 572.465 0 0 0-3.5-24V-.5z"/><path style="opacity:1" fill="#2a64b5" d="M16.5 10.5h1172v835a270.385 270.385 0 0 1-5.5 44 2121.886 2121.886 0 0 1-18 62c-1.33 1.333-2.67 1.333-4 0-4.2-19.116-8.86-38.116-14-57A213131.483 213131.483 0 0 1 995.5 351a39.689 39.689 0 0 0-7-5l-55-1a9.454 9.454 0 0 1-2.5-1.5 3514.49 3514.49 0 0 0-43.5-117 46.607 46.607 0 0 1-6-5.5 39279.945 39279.945 0 0 0-560-1 29.517 29.517 0 0 0-4.5 2.5l-57 120a1199.684 1199.684 0 0 1-48.5 1.5 20.231 20.231 0 0 0-7.5 7.5 13435.854 13435.854 0 0 1-107 328 8880.61 8880.61 0 0 1-74 225c-1.05 1.017-2.216 1.184-3.5.5a122.235 122.235 0 0 1-7.5-24.5c-.667-289.667-.667-579.333 0-869 1.356-.88 2.856-1.213 4.5-1z"/><path style="opacity:1" fill="#225397" d="M16.5 10.5c390.833-1 781.833-1.333 1173-1 .33 278.834 0 557.5-1 836v-835H16.5z"/><path style="opacity:1" fill="#c2c2c2" d="M880.5 239.5a2642.313 2642.313 0 0 0 30 77 67.304 67.304 0 0 0 5 22c.014 2.093-.652 3.926-2 5.5-213.236.833-426.403.666-639.5-.5-.823-4.238-.156-8.238 2-12l45.5-95a63.155 63.155 0 0 1 6-5.5 74219.39 74219.39 0 0 1 545 0c1.266.309 2.433.809 3.5 1.5a72.004 72.004 0 0 1 4.5 7z"/><path style="opacity:1" fill="#343847" d="M880.5 239.5a4.934 4.934 0 0 1 3 .5 55.747 55.747 0 0 0 4.5 5.5 467.383 467.383 0 0 1 13 40c5.167 9.655 8.334 19.988 9.5 31a2642.313 2642.313 0 0 1-30-77z"/><path style="opacity:1" fill="#c2c2c2" d="M1024.5 493.5a191.928 191.928 0 0 0 6 23c4.15 17.942 8.65 35.942 13.5 54a16197.367 16197.367 0 0 0 68 239 8509.722 8509.722 0 0 0 44.5 164.5 191.524 191.524 0 0 1-9.5 33.5c-5.67 13.33-11.33 26.67-17 40a939.62 939.62 0 0 0-22 44c-7.1 9.87-13.43 20.2-19 31-18.66 24.63-37.32 49.29-56 74-15.5 14.16-29.5 29.49-42 46-3.824 1.58-7.157 3.92-10 7-1-.67-2-1.33-3-2a10431.938 10431.938 0 0 1-98-239 9671.67 9671.67 0 0 1-43-102 2474.262 2474.262 0 0 0-31-59C758.78 778.615 693.28 740.115 609.5 732c-83.17-5.46-154.003 21.04-212.5 79.5-14.658 16.667-27.324 34.667-38 54a40817.309 40817.309 0 0 1-86 211 7218.272 7218.272 0 0 1-57 154c-1.872 3.78-4.205 7.11-7 10-5.244-3.24-9.911-7.24-14-12a1157.51 1157.51 0 0 0-39-42 1351.177 1351.177 0 0 1-59-80c-21.013-35.36-37.68-72.7-50-112a1634.86 1634.86 0 0 1-16.5-67 38.518 38.518 0 0 1 1.5-10 3617.968 3617.968 0 0 0 19.5-56c2.435-4.299 4.102-8.966 5-14a17663.399 17663.399 0 0 1 97.5-302 111.736 111.736 0 0 1 10-32 107.18 107.18 0 0 0 4-16 4181.901 4181.901 0 0 0 46-138c.5-1.167 1.333-2 2.5-2.5a14.72 14.72 0 0 0 5-1.5l221-1c137.336.621 274.669.621 412 0a4279.13 4279.13 0 0 1 129 1.5c3.322 2.735 5.489 6.235 6.5 10.5a5944.733 5944.733 0 0 1 34.5 127z"/><path style="opacity:1" fill="#808184" d="M1024.5 493.5c3.07 7.282 5.07 14.949 6 23a191.928 191.928 0 0 1-6-23z"/><path style="opacity:1" fill="#72787d" d="M56.5 847.5c-.898 5.034-2.565 9.701-5 14 .912-5.079 2.579-9.745 5-14z"/><path style="opacity:1" fill="#c8c8c8" d="M-.5 868.5a572.465 572.465 0 0 1 3.5 24 6755.927 6755.927 0 0 0 33.5 110c-2.287-3.652-4.12-7.652-5.5-12a2089.543 2089.543 0 0 1-31.5-105v-17z"/><path style="opacity:1" fill="#c3c3c3" d="M1199.5 866.5v9c-.69 4.373-2.36 8.373-5 12a225.768 225.768 0 0 1 5-21z"/><path style="opacity:1" fill="#fefefe" d="M1199.5 875.5v524h-522c6.166-.9 12.5-1.56 19-2 5.67-.42 11.003-1.75 16-4a484.614 484.614 0 0 0 72-22c2.399 1.01 4.399.34 6-2a238.522 238.522 0 0 0 21-8c.996-.09 1.829.25 2.5 1 .667-.67 1.333-1.33 2-2h4a14.029 14.029 0 0 0 4-3h4a49.807 49.807 0 0 0 5.5-4 3516.27 3516.27 0 0 0 72-35.5 1073.64 1073.64 0 0 0 31-19.5 308.552 308.552 0 0 0 41-31 449.526 449.526 0 0 0 30-26c.74.13 1.41-.04 2-.5 9.17-10.01 18.51-19.84 28-29.5 15.33-19.51 30.5-39.17 45.5-59 13.33-21.33 26.67-42.67 40-64 8.39-18.45 17.06-36.79 26-55a1057.725 1057.725 0 0 0 45.5-146c2.64-3.627 4.31-7.627 5-12zM-.5 885.5a2089.543 2089.543 0 0 0 31.5 105c1.38 4.348 3.213 8.348 5.5 12a816.544 816.544 0 0 0 31 75.5 706.738 706.738 0 0 0 28 48.5c3.031 4.02 6.031 8.02 9 12a1522.758 1522.758 0 0 0 32 43 147.767 147.767 0 0 0 23 27c4.307 3.97 8.641 7.97 13 12 2 2.67 4.333 5 7 7a560.464 560.464 0 0 0 53 48 81.878 81.878 0 0 0 14 10 185.92 185.92 0 0 0 19 13c.473 1.41 1.473 2.07 3 2 3.303 3.66 7.303 6.32 12 8a37.79 37.79 0 0 0 10 6c3.178 2.76 6.845 4.76 11 6a507.85 507.85 0 0 0 66 33 135.991 135.991 0 0 0 20 9c2.149 1.24 4.482 2.24 7 3 4.536 2.75 9.536 4.08 15 4 35.386 15.43 72.386 25.43 111 30H-.5v-514z"/><path style="opacity:1" fill="#666667" d="M95.5 1126.5c4.924 2.5 7.924 6.5 9 12-2.969-3.98-5.969-7.98-9-12z"/><path style="opacity:1" fill="#545456" d="M136.5 1181.5c2.556 1.04 4.723 2.71 6.5 5 3.251 5.26 7.251 9.92 12 14 2.157 2.32 3.657 4.98 4.5 8a147.767 147.767 0 0 1-23-27z"/><path style="opacity:1" fill="#c5c5c5" d="M1037.5 1211.5c-9.49 9.66-18.83 19.49-28 29.5-.59.46-1.26.63-2 .5a212.662 212.662 0 0 1 30-30z"/><path style="opacity:1" fill="#636365" d="M172.5 1220.5c3.333 1.33 5.667 3.67 7 7-2.667-2-5-4.33-7-7z"/><path style="opacity:1" fill="#c2c2c2" d="M236.5 1249.5c244.357.9 488.69 1.06 733 .5a17.89 17.89 0 0 1 5 3.5 1499.688 1499.688 0 0 1-35 29.5c-71.781 45.54-149.114 78.54-232 99a493.135 493.135 0 0 0-33 5c-48.667.67-97.333.67-146 0-9.345-.5-18.679-1.17-28-2a574.235 574.235 0 0 1-71-19c-1.162-.83-2.329-1.66-3.5-2.5a2569.36 2569.36 0 0 1-53.5-19.5 3749.303 3749.303 0 0 1-73-37 166.282 166.282 0 0 0-33-20 25.937 25.937 0 0 1-5-5 245.594 245.594 0 0 1-42-30c.333-.33.667-.67 1-1 5.516-.17 10.849-.67 16-1.5z"/><path style="opacity:1" fill="#c6c6c6" d="M977.5 1267.5a308.552 308.552 0 0 1-41 31 485.342 485.342 0 0 1 41-31z"/><path style="opacity:1" fill="#454547" d="M232.5 1275.5c5.486 2.15 10.152 5.48 14 10a81.878 81.878 0 0 1-14-10z"/><path style="opacity:1" fill="#363638" d="M246.5 1285.5c1.808-.01 3.475.49 5 1.5a41.34 41.34 0 0 0 11 7.5c1.024 1.35 2.024 2.69 3 4a185.92 185.92 0 0 1-19-13z"/><path style="opacity:1" fill="#3e3e3f" d="M268.5 1300.5c4.822 1.5 8.822 4.16 12 8-4.697-1.68-8.697-4.34-12-8z"/><path style="opacity:1" fill="#565658" d="M290.5 1314.5c4.79.22 8.456 2.22 11 6-4.155-1.24-7.822-3.24-11-6z"/><path style="opacity:1" fill="#393939" d="M367.5 1353.5c4.81.6 9.476 1.76 14 3.5 2.496 1.33 4.496 3.16 6 5.5a135.991 135.991 0 0 1-20-9z"/><path style="opacity:1" fill="#aeaeae" d="M833.5 1353.5a49.807 49.807 0 0 1-5.5 4h-4a14.029 14.029 0 0 1-4 3h-4c-.667.67-1.333 1.33-2 2-.671-.75-1.504-1.09-2.5-1 6.887-3.63 14.221-6.3 22-8z"/><path style="opacity:1" fill="#565656" d="M394.5 1365.5c5.431.17 10.431 1.51 15 4-5.464.08-10.464-1.25-15-4z"/><path style="opacity:1" fill="#9b9b9b" d="M790.5 1369.5c-1.601 2.34-3.601 3.01-6 2 1.602-1.57 3.602-2.24 6-2z"/><path style="opacity:1" fill="#a8a8a8" d="M712.5 1393.5c-4.997 2.25-10.33 3.58-16 4 4.997-2.25 10.33-3.58 16-4z"/></svg>

<?xml version="1.0" encoding="UTF-8"?>
<!DOCTYPE svg PUBLIC "-//W3C//DTD SVG 1.1//EN" "http://www.w3.org/Graphics/SVG/1.1/DTD/svg11.dtd">
<svg xmlns="http://www.w3.org/2000/svg" version="1.1" width="1200px" height="1400px" style="shape-rendering:geometricPrecision; text-rendering:geometricPrecision; image-rendering:optimizeQuality; fill-rule:evenodd; clip-rule:evenodd" xmlns:xlink="http://www.w3.org/1999/xlink">
<g><path style="opacity:1" fill="#000000" d="M -0.5,-0.5 C 399.5,-0.5 799.5,-0.5 1199.5,-0.5C 1199.5,288.5 1199.5,577.5 1199.5,866.5C 1197.52,873.316 1195.86,880.316 1194.5,887.5C 1182.86,937.257 1167.69,985.924 1149,1033.5C 1140.06,1051.71 1131.39,1070.05 1123,1088.5C 1109.67,1109.83 1096.33,1131.17 1083,1152.5C 1068,1172.33 1052.83,1191.99 1037.5,1211.5C 1026.52,1220.48 1016.52,1230.48 1007.5,1241.5C 997.833,1250.65 987.833,1259.32 977.5,1267.5C 963.287,1277.11 949.62,1287.44 936.5,1298.5C 926.335,1305.14 916.002,1311.64 905.5,1318C 881.562,1330.14 857.562,1341.98 833.5,1353.5C 825.721,1355.2 818.387,1357.87 811.5,1361.5C 804.678,1364.48 797.678,1367.14 790.5,1369.5C 788.102,1369.26 786.102,1369.93 784.5,1371.5C 761.159,1380.67 737.159,1388.01 712.5,1393.5C 706.83,1393.92 701.497,1395.25 696.5,1397.5C 690,1397.94 683.666,1398.6 677.5,1399.5C 625.167,1399.5 572.833,1399.5 520.5,1399.5C 481.886,1394.93 444.886,1384.93 409.5,1369.5C 404.931,1367.01 399.931,1365.67 394.5,1365.5C 391.982,1364.74 389.649,1363.74 387.5,1362.5C 385.996,1360.16 383.996,1358.33 381.5,1357C 376.976,1355.26 372.31,1354.1 367.5,1353.5C 344.619,1344.06 322.619,1333.06 301.5,1320.5C 298.956,1316.72 295.29,1314.72 290.5,1314.5C 286.827,1313 283.494,1311 280.5,1308.5C 277.322,1304.66 273.322,1302 268.5,1300.5C 266.973,1300.57 265.973,1299.91 265.5,1298.5C 264.524,1297.19 263.524,1295.85 262.5,1294.5C 258.422,1292.59 254.755,1290.09 251.5,1287C 249.975,1285.99 248.308,1285.49 246.5,1285.5C 242.652,1280.98 237.986,1277.65 232.5,1275.5C 213.847,1260.66 196.18,1244.66 179.5,1227.5C 178.167,1224.17 175.833,1221.83 172.5,1220.5C 168.141,1216.47 163.807,1212.47 159.5,1208.5C 158.657,1205.48 157.157,1202.82 155,1200.5C 150.251,1196.42 146.251,1191.76 143,1186.5C 141.223,1184.21 139.056,1182.54 136.5,1181.5C 125.601,1167.38 114.935,1153.05 104.5,1138.5C 103.424,1133 100.424,1129 95.5,1126.5C 85.5173,1110.69 76.1839,1094.52 67.5,1078C 55.8725,1053.26 45.5392,1028.1 36.5,1002.5C 25.0283,965.951 13.8616,929.285 3,892.5C 1.98206,884.333 0.815391,876.333 -0.5,868.5C -0.5,578.833 -0.5,289.167 -0.5,-0.5 Z"/></g>
<g><path style="opacity:1" fill="#2a64b5" d="M 16.5,10.5 C 407.167,10.5 797.833,10.5 1188.5,10.5C 1188.5,288.833 1188.5,567.167 1188.5,845.5C 1187.87,860.315 1186.04,874.981 1183,889.5C 1177.31,910.273 1171.31,930.94 1165,951.5C 1163.67,952.833 1162.33,952.833 1161,951.5C 1156.8,932.384 1152.14,913.384 1147,894.5C 1096.31,713.579 1045.81,532.412 995.5,351C 993.373,349.098 991.04,347.431 988.5,346C 970.167,345.667 951.833,345.333 933.5,345C 932.584,344.626 931.75,344.126 931,343.5C 917.188,304.23 902.688,265.23 887.5,226.5C 885.35,224.851 883.35,223.018 881.5,221C 694.913,219.336 508.247,219.003 321.5,220C 319.919,220.707 318.419,221.54 317,222.5C 298,262.5 279,302.5 260,342.5C 243.907,343.325 227.741,343.825 211.5,344C 208.333,345.833 205.833,348.333 204,351.5C 169.758,461.226 134.092,570.56 97,679.5C 73.2891,754.964 48.6225,829.964 23,904.5C 21.9505,905.517 20.7839,905.684 19.5,905C 16.1617,897.161 13.6617,888.995 12,880.5C 11.3333,590.833 11.3333,301.167 12,11.5C 13.3561,10.6198 14.8561,10.2865 16.5,10.5 Z"/></g>
<g><path style="opacity:1" fill="#225397" d="M 16.5,10.5 C 407.333,9.50014 798.333,9.16681 1189.5,9.5C 1189.83,288.334 1189.5,567 1188.5,845.5C 1188.5,567.167 1188.5,288.833 1188.5,10.5C 797.833,10.5 407.167,10.5 16.5,10.5 Z"/></g>
<g><path style="opacity:1" fill="#c2c2c2" d="M 880.5,239.5 C 890.131,265.406 900.131,291.073 910.5,316.5C 910.931,324.123 912.597,331.456 915.5,338.5C 915.514,340.593 914.848,342.426 913.5,344C 700.264,344.833 487.097,344.666 274,343.5C 273.177,339.262 273.844,335.262 276,331.5C 291.167,299.833 306.333,268.167 321.5,236.5C 323.397,234.524 325.397,232.69 327.5,231C 509.167,230.333 690.833,230.333 872.5,231C 873.766,231.309 874.933,231.809 876,232.5C 877.629,234.737 879.129,237.071 880.5,239.5 Z"/></g>
<g><path style="opacity:1" fill="#343847" d="M 880.5,239.5 C 881.552,239.351 882.552,239.517 883.5,240C 884.88,241.925 886.38,243.759 888,245.5C 892.904,258.548 897.238,271.882 901,285.5C 906.167,295.155 909.334,305.488 910.5,316.5C 900.131,291.073 890.131,265.406 880.5,239.5 Z"/></g>
<g><path style="opacity:1" fill="#c2c2c2" d="M 1024.5,493.5 C 1026.05,501.387 1028.05,509.054 1030.5,516.5C 1034.65,534.442 1039.15,552.442 1044,570.5C 1066.04,650.292 1088.71,729.958 1112,809.5C 1126.29,864.497 1141.12,919.33 1156.5,974C 1154.36,985.428 1151.19,996.594 1147,1007.5C 1141.33,1020.83 1135.67,1034.17 1130,1047.5C 1122.29,1061.96 1114.96,1076.62 1108,1091.5C 1100.9,1101.37 1094.57,1111.7 1089,1122.5C 1070.34,1147.13 1051.68,1171.79 1033,1196.5C 1017.5,1210.66 1003.5,1225.99 991,1242.5C 987.176,1244.08 983.843,1246.42 981,1249.5C 980,1248.83 979,1248.17 978,1247.5C 944.374,1168.3 911.707,1088.64 880,1008.5C 865.472,974.581 851.138,940.581 837,906.5C 826.922,886.675 816.588,867.009 806,847.5C 758.78,778.615 693.28,740.115 609.5,732C 526.33,726.54 455.497,753.04 397,811.5C 382.342,828.167 369.676,846.167 359,865.5C 330.529,935.914 301.862,1006.25 273,1076.5C 254.638,1127.9 235.638,1179.24 216,1230.5C 214.128,1234.28 211.795,1237.61 209,1240.5C 203.756,1237.26 199.089,1233.26 195,1228.5C 182.367,1214.2 169.367,1200.2 156,1186.5C 135.368,1160.58 115.701,1133.91 97,1106.5C 75.9868,1071.14 59.3201,1033.8 47,994.5C 41.0152,972.228 35.5152,949.895 30.5,927.5C 30.5611,924.097 31.0611,920.764 32,917.5C 38.6952,898.765 45.1952,880.099 51.5,861.5C 53.9351,857.201 55.6018,852.534 56.5,847.5C 88.05,746.683 120.55,646.016 154,545.5C 155.729,534.315 159.062,523.648 164,513.5C 165.745,508.265 167.079,502.932 168,497.5C 184.101,451.863 199.435,405.863 214,359.5C 214.5,358.333 215.333,357.5 216.5,357C 218.256,356.798 219.922,356.298 221.5,355.5C 295.167,355.167 368.833,354.833 442.5,354.5C 579.836,355.121 717.169,355.121 854.5,354.5C 897.527,354.352 940.527,354.852 983.5,356C 986.822,358.735 988.989,362.235 990,366.5C 1001.99,408.785 1013.49,451.118 1024.5,493.5 Z"/></g>
<g><path style="opacity:1" fill="#808184" d="M 1024.5,493.5 C 1027.57,500.782 1029.57,508.449 1030.5,516.5C 1028.05,509.054 1026.05,501.387 1024.5,493.5 Z"/></g>
<g><path style="opacity:1" fill="#72787d" d="M 56.5,847.5 C 55.6018,852.534 53.9351,857.201 51.5,861.5C 52.412,856.421 54.0786,851.755 56.5,847.5 Z"/></g>
<g><path style="opacity:1" fill="#c8c8c8" d="M -0.5,868.5 C 0.815391,876.333 1.98206,884.333 3,892.5C 13.8616,929.285 25.0283,965.951 36.5,1002.5C 34.2127,998.848 32.3794,994.848 31,990.5C 19.5366,955.625 9.03661,920.625 -0.5,885.5C -0.5,879.833 -0.5,874.167 -0.5,868.5 Z"/></g>
<g><path style="opacity:1" fill="#c3c3c3" d="M 1199.5,866.5 C 1199.5,869.5 1199.5,872.5 1199.5,875.5C 1198.81,879.873 1197.14,883.873 1194.5,887.5C 1195.86,880.316 1197.52,873.316 1199.5,866.5 Z"/></g>
<g><path style="opacity:1" fill="#fefefe" d="M 1199.5,875.5 C 1199.5,1050.17 1199.5,1224.83 1199.5,1399.5C 1025.5,1399.5 851.5,1399.5 677.5,1399.5C 683.666,1398.6 690,1397.94 696.5,1397.5C 702.17,1397.08 707.503,1395.75 712.5,1393.5C 737.159,1388.01 761.159,1380.67 784.5,1371.5C 786.899,1372.51 788.899,1371.84 790.5,1369.5C 797.678,1367.14 804.678,1364.48 811.5,1361.5C 812.496,1361.41 813.329,1361.75 814,1362.5C 814.667,1361.83 815.333,1361.17 816,1360.5C 817.333,1360.5 818.667,1360.5 820,1360.5C 821.512,1359.74 822.846,1358.74 824,1357.5C 825.333,1357.5 826.667,1357.5 828,1357.5C 829.98,1356.25 831.813,1354.92 833.5,1353.5C 857.562,1341.98 881.562,1330.14 905.5,1318C 916.002,1311.64 926.335,1305.14 936.5,1298.5C 951.023,1289.31 964.689,1278.98 977.5,1267.5C 987.833,1259.32 997.833,1250.65 1007.5,1241.5C 1008.24,1241.63 1008.91,1241.46 1009.5,1241C 1018.67,1230.99 1028.01,1221.16 1037.5,1211.5C 1052.83,1191.99 1068,1172.33 1083,1152.5C 1096.33,1131.17 1109.67,1109.83 1123,1088.5C 1131.39,1070.05 1140.06,1051.71 1149,1033.5C 1167.69,985.924 1182.86,937.257 1194.5,887.5C 1197.14,883.873 1198.81,879.873 1199.5,875.5 Z"/></g>
<g><path style="opacity:1" fill="#fefefe" d="M -0.5,885.5 C 9.03661,920.625 19.5366,955.625 31,990.5C 32.3794,994.848 34.2127,998.848 36.5,1002.5C 45.5392,1028.1 55.8725,1053.26 67.5,1078C 76.1839,1094.52 85.5173,1110.69 95.5,1126.5C 98.5314,1130.52 101.531,1134.52 104.5,1138.5C 114.935,1153.05 125.601,1167.38 136.5,1181.5C 143.071,1191.41 150.738,1200.41 159.5,1208.5C 163.807,1212.47 168.141,1216.47 172.5,1220.5C 174.5,1223.17 176.833,1225.5 179.5,1227.5C 196.18,1244.66 213.847,1260.66 232.5,1275.5C 236.806,1279.32 241.473,1282.65 246.5,1285.5C 252.554,1290.22 258.887,1294.55 265.5,1298.5C 265.973,1299.91 266.973,1300.57 268.5,1300.5C 271.803,1304.16 275.803,1306.82 280.5,1308.5C 283.494,1311 286.827,1313 290.5,1314.5C 293.678,1317.26 297.345,1319.26 301.5,1320.5C 322.619,1333.06 344.619,1344.06 367.5,1353.5C 373.861,1357.01 380.528,1360.01 387.5,1362.5C 389.649,1363.74 391.982,1364.74 394.5,1365.5C 399.036,1368.25 404.036,1369.58 409.5,1369.5C 444.886,1384.93 481.886,1394.93 520.5,1399.5C 346.833,1399.5 173.167,1399.5 -0.5,1399.5C -0.5,1228.17 -0.5,1056.83 -0.5,885.5 Z"/></g>
<g><path style="opacity:1" fill="#666667" d="M 95.5,1126.5 C 100.424,1129 103.424,1133 104.5,1138.5C 101.531,1134.52 98.5314,1130.52 95.5,1126.5 Z"/></g>
<g><path style="opacity:1" fill="#545456" d="M 136.5,1181.5 C 139.056,1182.54 141.223,1184.21 143,1186.5C 146.251,1191.76 150.251,1196.42 155,1200.5C 157.157,1202.82 158.657,1205.48 159.5,1208.5C 150.738,1200.41 143.071,1191.41 136.5,1181.5 Z"/></g>
<g><path style="opacity:1" fill="#c5c5c5" d="M 1037.5,1211.5 C 1028.01,1221.16 1018.67,1230.99 1009.5,1241C 1008.91,1241.46 1008.24,1241.63 1007.5,1241.5C 1016.52,1230.48 1026.52,1220.48 1037.5,1211.5 Z"/></g>
<g><path style="opacity:1" fill="#636365" d="M 172.5,1220.5 C 175.833,1221.83 178.167,1224.17 179.5,1227.5C 176.833,1225.5 174.5,1223.17 172.5,1220.5 Z"/></g>
<g><path style="opacity:1" fill="#c2c2c2" d="M 236.5,1249.5 C 480.857,1250.4 725.19,1250.56 969.5,1250C 971.398,1250.9 973.064,1252.07 974.5,1253.5C 963.005,1263.49 951.338,1273.33 939.5,1283C 867.719,1328.54 790.386,1361.54 707.5,1382C 696.428,1383.3 685.428,1384.96 674.5,1387C 625.833,1387.67 577.167,1387.67 528.5,1387C 519.155,1386.5 509.821,1385.83 500.5,1385C 476.423,1380.18 452.757,1373.85 429.5,1366C 428.338,1365.17 427.171,1364.34 426,1363.5C 408.101,1357.2 390.268,1350.7 372.5,1344C 348.011,1331.92 323.678,1319.59 299.5,1307C 289.302,1299.07 278.302,1292.4 266.5,1287C 264.597,1285.55 262.93,1283.89 261.5,1282C 246.453,1273.48 232.453,1263.48 219.5,1252C 219.833,1251.67 220.167,1251.33 220.5,1251C 226.016,1250.83 231.349,1250.33 236.5,1249.5 Z"/></g>
<g><path style="opacity:1" fill="#c6c6c6" d="M 977.5,1267.5 C 964.689,1278.98 951.023,1289.31 936.5,1298.5C 949.62,1287.44 963.287,1277.11 977.5,1267.5 Z"/></g>
<g><path style="opacity:1" fill="#454547" d="M 232.5,1275.5 C 237.986,1277.65 242.652,1280.98 246.5,1285.5C 241.473,1282.65 236.806,1279.32 232.5,1275.5 Z"/></g>
<g><path style="opacity:1" fill="#363638" d="M 246.5,1285.5 C 248.308,1285.49 249.975,1285.99 251.5,1287C 254.755,1290.09 258.422,1292.59 262.5,1294.5C 263.524,1295.85 264.524,1297.19 265.5,1298.5C 258.887,1294.55 252.554,1290.22 246.5,1285.5 Z"/></g>
<g><path style="opacity:1" fill="#3e3e3f" d="M 268.5,1300.5 C 273.322,1302 277.322,1304.66 280.5,1308.5C 275.803,1306.82 271.803,1304.16 268.5,1300.5 Z"/></g>
<g><path style="opacity:1" fill="#565658" d="M 290.5,1314.5 C 295.29,1314.72 298.956,1316.72 301.5,1320.5C 297.345,1319.26 293.678,1317.26 290.5,1314.5 Z"/></g>
<g><path style="opacity:1" fill="#393939" d="M 367.5,1353.5 C 372.31,1354.1 376.976,1355.26 381.5,1357C 383.996,1358.33 385.996,1360.16 387.5,1362.5C 380.528,1360.01 373.861,1357.01 367.5,1353.5 Z"/></g>
<g><path style="opacity:1" fill="#aeaeae" d="M 833.5,1353.5 C 831.813,1354.92 829.98,1356.25 828,1357.5C 826.667,1357.5 825.333,1357.5 824,1357.5C 822.846,1358.74 821.512,1359.74 820,1360.5C 818.667,1360.5 817.333,1360.5 816,1360.5C 815.333,1361.17 814.667,1361.83 814,1362.5C 813.329,1361.75 812.496,1361.41 811.5,1361.5C 818.387,1357.87 825.721,1355.2 833.5,1353.5 Z"/></g>
<g><path style="opacity:1" fill="#565656" d="M 394.5,1365.5 C 399.931,1365.67 404.931,1367.01 409.5,1369.5C 404.036,1369.58 399.036,1368.25 394.5,1365.5 Z"/></g>
<g><path style="opacity:1" fill="#9b9b9b" d="M 790.5,1369.5 C 788.899,1371.84 786.899,1372.51 784.5,1371.5C 786.102,1369.93 788.102,1369.26 790.5,1369.5 Z"/></g>
<g><path style="opacity:1" fill="#a8a8a8" d="M 712.5,1393.5 C 707.503,1395.75 702.17,1397.08 696.5,1397.5C 701.497,1395.25 706.83,1393.92 712.5,1393.5 Z"/></g>
</svg>
